X:212
T:Dumfries House
R:Jig
C:Joseph Riddell
B:The Athole Collection
M:6/8
L:1/8
K:G
D|G3 G2g|dBG GAB|cde dcB|AFD DEF|G3 G2g|dBG GAB|cEA FEF|G3 G2:|
|:B/c/|dBd dBd|gag g<fe|dBd dcB|AFD D2 B/c/|1 dBd dBd gag g<fe|dcB AGF|
G3 G2:|2 dBd ece|fdf gfe|dcB Agf|gdB G2||

